;FLAVOR:Marlin
;TIME:2598
;Filament used: 1.40497m
;Layer height: 0.2
;MINX:95.098
;MINY:126.875
;MINZ:0.2
;MAXX:171.9
;MAXY:173.125
;MAXZ:21
;Generated with Cura_SteamEngine 5.2.2
M140 S60
M105
M190 S60
M104 S200
M105
M109 S200
M82 ;absolute extrusion mode
; Ender 3 Max Custom Start G-code
G92 E0 ; Reset Extruder
G28 ; Home all axes
G1 Z2.0 F3000 ; Move Z Axis up little to prevent scratching of Heat Bed
G1 X0.1 Y20 Z0.3 F5000.0 ; Move to start position
G1 X0.1 Y200.0 Z0.3 F1500.0 E15 ; Draw the first line
G1 X0.4 Y200.0 Z0.3 F5000.0 ; Move to side a little
G1 X0.4 Y20 Z0.3 F1500.0 E30 ; Draw the second line
G92 E0 ; Reset Extruder
G1 Z2.0 F3000 ; Move Z Axis up little to prevent scratching of Heat Bed
G1 X5 Y20 Z0.3 F5000.0 ; Move over to prevent blob squish
G92 E0
G92 E0
G1 F1500 E-6.5
;LAYER_COUNT:105
;LAYER:0
M107
G0 F6000 X101.957 Y135.978 Z0.2
;TYPE:SKIRT
G1 F1500 E0
G1 F1200 X103.315 Y135.015 E0.05537
G1 X103.982 Y134.592 E0.08164
G1 X104.606 Y134.274 E0.10493
G1 X105.487 Y133.876 E0.13709
G1 X106.852 Y133.287 E0.18653
G1 X107.592 Y133.012 E0.21279
G1 X108.147 Y132.858 E0.23195
G1 X109.143 Y132.618 E0.26602
G1 X109.915 Y132.452 E0.29229
G1 X110.496 Y132.38 E0.31176
G1 X112.238 Y132.231 E0.36991
G1 X113.027 Y132.204 E0.39617
G1 X113.578 Y132.232 E0.41452
G1 X115.293 Y132.381 E0.47177
G1 X116.075 Y132.489 E0.49803
G1 X116.617 Y132.612 E0.51652
G1 X118.273 Y133.051 E0.5735
G1 X119.025 Y133.292 E0.59976
G1 X119.654 Y133.561 E0.62251
G1 X120.307 Y133.875 E0.64661
G1 X121.904 Y134.686 E0.70619
G1 X122.589 Y135.079 E0.73245
G1 X123.071 Y135.415 E0.752
G1 X123.771 Y135.942 E0.78114
G1 X124.395 Y136.426 E0.8074
G1 X124.75 Y136.75 E0.82339
G1 X125.855 Y137.825 E0.87467
G1 X126.392 Y138.404 E0.90093
G1 X126.859 Y139.019 E0.92661
G1 X128.1 Y140.838 E0.99985
G1 X128.1 Y134.675 E1.20484
G1 X128.14 Y133.886 E1.23111
G1 X128.259 Y133.106 E1.25735
G1 X128.457 Y132.341 E1.28364
G1 X128.731 Y131.601 E1.30988
G1 X129.079 Y130.892 E1.33615
G1 X129.497 Y130.221 E1.36245
G1 X129.98 Y129.597 E1.38869
G1 X130.523 Y129.024 E1.41495
G1 X131.122 Y128.509 E1.44122
G1 X131.77 Y128.058 E1.46748
G1 X132.461 Y127.674 E1.49377
G1 X133.186 Y127.362 E1.52002
G1 X133.939 Y127.125 E1.54628
G1 X134.713 Y126.966 E1.57256
G1 X135.498 Y126.885 E1.59881
G1 X135.9 Y126.875 E1.61218
G1 X164.1 Y126.875 E2.55012
G1 X164.889 Y126.915 E2.5764
G1 X165.669 Y127.034 E2.60264
G1 X166.434 Y127.232 E2.62892
G1 X167.174 Y127.506 E2.65517
G1 X167.883 Y127.854 E2.68144
G1 X168.554 Y128.272 E2.70773
G1 X169.178 Y128.755 E2.73397
G1 X169.751 Y129.298 E2.76023
G1 X170.266 Y129.897 E2.7865
G1 X170.717 Y130.545 E2.81276
G1 X171.101 Y131.236 E2.83906
G1 X171.413 Y131.961 E2.86531
G1 X171.65 Y132.714 E2.89156
G1 X171.809 Y133.488 E2.91784
G1 X171.89 Y134.273 E2.94409
G1 X171.9 Y134.675 E2.95747
G1 X171.9 Y165.325 E3.97689
G1 X171.86 Y166.114 E4.00317
G1 X171.741 Y166.894 E4.02941
G1 X171.543 Y167.659 E4.05569
G1 X171.269 Y168.399 E4.08194
G1 X170.921 Y169.108 E4.10821
G1 X170.503 Y169.779 E4.1345
G1 X170.02 Y170.403 E4.16075
G1 X169.477 Y170.976 E4.187
G1 X168.878 Y171.491 E4.21328
G1 X168.23 Y171.942 E4.23953
G1 X167.539 Y172.326 E4.26583
G1 X166.814 Y172.638 E4.29208
G1 X166.061 Y172.875 E4.31834
G1 X165.287 Y173.034 E4.34462
G1 X164.502 Y173.115 E4.37086
G1 X164.1 Y173.125 E4.38424
G1 X135.9 Y173.125 E5.32217
G1 X135.111 Y173.085 E5.34845
G1 X134.331 Y172.966 E5.37469
G1 X133.566 Y172.768 E5.40098
G1 X132.826 Y172.494 E5.42722
G1 X132.117 Y172.146 E5.45349
G1 X131.446 Y171.728 E5.47978
G1 X130.822 Y171.245 E5.50603
G1 X130.249 Y170.702 E5.53229
G1 X129.734 Y170.103 E5.55856
G1 X129.283 Y169.455 E5.58482
G1 X128.899 Y168.764 E5.61111
G1 X128.587 Y168.039 E5.63736
G1 X128.35 Y167.286 E5.66362
G1 X128.191 Y166.512 E5.6899
G1 X128.11 Y165.727 E5.71615
G1 X128.1 Y165.325 E5.72952
G1 X128.1 Y159.228 E5.93231
G1 X127.851 Y159.615 E5.94762
G1 X126.887 Y160.964 E6.00276
G1 X126.396 Y161.582 E6.02901
G1 X126.056 Y161.944 E6.04553
G1 X124.826 Y163.174 E6.10339
G1 X124.24 Y163.704 E6.12967
G1 X123.824 Y164.021 E6.14706
G1 X122.468 Y164.983 E6.20236
G1 X121.802 Y165.406 E6.2286
G1 X121.18 Y165.723 E6.25182
G1 X120.294 Y166.124 E6.28417
G1 X118.929 Y166.713 E6.33361
G1 X118.189 Y166.988 E6.35987
G1 X117.632 Y167.142 E6.37909
G1 X116.637 Y167.382 E6.41314
G1 X115.865 Y167.548 E6.4394
G1 X115.284 Y167.62 E6.45887
G1 X113.542 Y167.769 E6.51702
G1 X112.753 Y167.796 E6.54328
G1 X112.202 Y167.768 E6.56163
G1 X110.487 Y167.619 E6.61889
G1 X109.705 Y167.511 E6.64514
G1 X109.247 Y167.409 E6.66075
G1 X107.802 Y167.043 E6.71033
G1 X107.047 Y166.811 E6.7366
G1 X106.393 Y166.538 E6.76017
G1 X104.285 Y165.545 E6.83767
G1 X103.589 Y165.173 E6.86392
G1 X103.018 Y164.795 E6.88669
G1 X101.878 Y163.965 E6.9336
G1 X101.095 Y163.312 E6.96751
G1 X100.162 Y162.425 E7.01032
G1 X99.618 Y161.853 E7.03658
G1 X99.215 Y161.342 E7.05822
G1 X97.822 Y159.415 E7.13731
G1 X97.392 Y158.752 E7.16359
G1 X97.032 Y158.051 E7.1898
G1 X96.389 Y156.625 E7.24183
G1 X96.043 Y155.705 E7.27452
G1 X95.718 Y154.645 E7.3114
G1 X95.525 Y153.88 E7.33764
G1 X95.436 Y153.329 E7.3562
G1 X95.192 Y151.361 E7.42216
G1 X95.133 Y150.743 E7.44281
G1 X95.098 Y149.954 E7.46908
G1 X95.128 Y149.323 E7.49009
G1 X95.28 Y147.584 E7.54815
G1 X95.456 Y146.48 E7.58533
G1 X95.729 Y145.317 E7.62506
G1 X95.949 Y144.559 E7.65131
G1 X96.163 Y144.005 E7.67107
G1 X96.882 Y142.344 E7.73127
G1 X97.161 Y141.723 E7.75391
G1 X97.521 Y141.02 E7.78018
G1 X97.928 Y140.388 E7.80518
G1 X98.891 Y139.039 E7.86031
G1 X99.381 Y138.42 E7.88657
G1 X99.724 Y138.056 E7.9032
G1 X100.954 Y136.826 E7.96106
G1 X101.54 Y136.296 E7.98734
G1 X101.957 Y135.978 E8.00478
G0 F6000 X102.188 Y136.305
G1 F1200 X103.546 Y135.342 E8.06015
G1 X104.196 Y134.93 E8.08574
G1 X104.772 Y134.638 E8.10722
G1 X105.522 Y134.298 E8.13461
G1 X107.01 Y133.655 E8.18853
G1 X107.731 Y133.387 E8.21411
G1 X108.239 Y133.248 E8.23163
G1 X109.246 Y133.004 E8.26609
G1 X109.999 Y132.844 E8.29169
G1 X110.53 Y132.779 E8.30949
G1 X112.272 Y132.63 E8.36764
G1 X113.041 Y132.604 E8.39323
G1 X113.544 Y132.631 E8.40998
G1 X115.259 Y132.78 E8.46724
G1 X116.02 Y132.886 E8.49279
G1 X116.514 Y132.999 E8.50965
G1 X118.17 Y133.438 E8.56663
G1 X118.902 Y133.674 E8.59221
G1 X119.481 Y133.922 E8.61316
G1 X120.282 Y134.309 E8.64275
G1 X121.723 Y135.042 E8.69652
G1 X122.39 Y135.426 E8.72212
G1 X122.83 Y135.734 E8.73998
G1 X123.542 Y136.27 E8.76962
G1 X124.15 Y136.742 E8.79522
G1 X124.471 Y137.037 E8.80973
G1 X125.576 Y138.112 E8.861
G1 X126.099 Y138.676 E8.88658
G1 X126.528 Y139.245 E8.91028
G1 X127.871 Y141.213 E8.98953
G1 X128.271 Y141.87 E9.01511
G1 X128.5 Y142.341 E9.03253
G1 X128.5 Y134.675 E9.2875
G1 X128.54 Y133.907 E9.31308
G1 X128.659 Y133.147 E9.33867
G1 X128.857 Y132.404 E9.36424
G1 X129.131 Y131.685 E9.38983
G1 X129.478 Y130.999 E9.4154
G1 X129.894 Y130.352 E9.44099
G1 X130.375 Y129.752 E9.46656
G1 X130.916 Y129.205 E9.49215
G1 X131.511 Y128.717 E9.51775
G1 X132.153 Y128.294 E9.54332
G1 X132.836 Y127.939 E9.56892
G1 X133.551 Y127.658 E9.59447
G1 X134.293 Y127.452 E9.62008
G1 X135.051 Y127.324 E9.64565
G1 X135.9 Y127.275 E9.67394
G1 X164.1 Y127.275 E10.61187
G1 X164.868 Y127.315 E10.63745
G1 X165.628 Y127.434 E10.66304
G1 X166.371 Y127.632 E10.68861
G1 X167.09 Y127.906 E10.7142
G1 X167.776 Y128.253 E10.73977
G1 X168.423 Y128.669 E10.76536
G1 X169.023 Y129.15 E10.79093
G1 X169.57 Y129.691 E10.81652
G1 X170.058 Y130.286 E10.84212
G1 X170.481 Y130.928 E10.86769
G1 X170.836 Y131.611 E10.89329
G1 X171.117 Y132.326 E10.91884
G1 X171.323 Y133.068 E10.94445
G1 X171.451 Y133.826 E10.97002
G1 X171.5 Y134.675 E10.99831
G1 X171.5 Y165.325 E12.01773
G1 X171.46 Y166.093 E12.04331
G1 X171.341 Y166.853 E12.06889
G1 X171.143 Y167.596 E12.09447
G1 X170.869 Y168.315 E12.12006
G1 X170.522 Y169.001 E12.14563
G1 X170.106 Y169.648 E12.17121
G1 X169.625 Y170.248 E12.19679
G1 X169.084 Y170.795 E12.22238
G1 X168.489 Y171.283 E12.24797
G1 X167.847 Y171.706 E12.27354
G1 X167.164 Y172.061 E12.29915
G1 X166.449 Y172.342 E12.3247
G1 X165.707 Y172.548 E12.35031
G1 X164.949 Y172.676 E12.37588
G1 X164.1 Y172.725 E12.40416
G1 X135.9 Y172.725 E13.3421
G1 X135.132 Y172.685 E13.36768
G1 X134.372 Y172.566 E13.39326
G1 X133.629 Y172.368 E13.41884
G1 X132.91 Y172.094 E13.44443
G1 X132.224 Y171.747 E13.47
G1 X131.577 Y171.331 E13.49558
G1 X130.977 Y170.85 E13.52116
G1 X130.43 Y170.309 E13.54675
G1 X129.942 Y169.714 E13.57234
G1 X129.519 Y169.072 E13.59791
G1 X129.164 Y168.389 E13.62352
G1 X128.883 Y167.674 E13.64907
G1 X128.677 Y166.932 E13.67468
G1 X128.549 Y166.174 E13.70025
G1 X128.5 Y165.325 E13.72853
G1 X128.5 Y157.568 E13.98653
G1 X128.255 Y158.113 E14.00641
G1 X127.904 Y158.797 E14.03198
G1 X127.526 Y159.382 E14.05514
G1 X126.562 Y160.731 E14.11029
G1 X126.083 Y161.333 E14.13588
G1 X125.774 Y161.662 E14.15089
G1 X124.544 Y162.892 E14.20874
G1 X123.972 Y163.406 E14.23432
G1 X123.593 Y163.694 E14.25015
G1 X122.237 Y164.656 E14.30545
G1 X121.587 Y165.068 E14.33105
G1 X121.014 Y165.359 E14.35242
G1 X120.136 Y165.756 E14.38447
G1 X118.771 Y166.345 E14.43392
G1 X118.05 Y166.613 E14.4595
G1 X117.54 Y166.753 E14.47709
G1 X116.534 Y166.996 E14.51151
G1 X115.781 Y167.156 E14.53712
G1 X115.25 Y167.221 E14.55491
G1 X113.508 Y167.37 E14.61306
G1 X112.739 Y167.396 E14.63865
G1 X112.236 Y167.369 E14.65541
G1 X110.521 Y167.22 E14.71266
G1 X109.76 Y167.114 E14.73822
G1 X109.345 Y167.021 E14.75236
G1 X107.9 Y166.655 E14.80194
G1 X107.165 Y166.428 E14.82753
G1 X106.564 Y166.176 E14.8492
G1 X104.456 Y165.183 E14.9267
G1 X103.778 Y164.82 E14.95228
G1 X103.253 Y164.471 E14.97325
G1 X102.113 Y163.641 E15.02015
G1 X101.37 Y163.022 E15.05232
G1 X100.437 Y162.135 E15.09513
G1 X99.908 Y161.577 E15.12071
G1 X99.539 Y161.107 E15.14058
G1 X98.146 Y159.18 E15.21967
G1 X97.728 Y158.534 E15.24526
G1 X97.397 Y157.887 E15.26943
G1 X96.754 Y156.461 E15.32146
G1 X96.425 Y155.588 E15.35249
G1 X96.1 Y154.528 E15.38936
G1 X95.913 Y153.782 E15.41494
G1 X95.832 Y153.279 E15.43189
G1 X95.614 Y151.54 E15.49018
G1 X95.531 Y150.705 E15.51809
G1 X95.498 Y149.937 E15.54366
G1 X95.526 Y149.358 E15.56294
G1 X95.678 Y147.619 E15.621
G1 X95.846 Y146.572 E15.65627
G1 X96.119 Y145.409 E15.696
G1 X96.333 Y144.67 E15.72159
G1 X96.531 Y144.163 E15.73969
G1 X97.247 Y142.508 E15.79967
G1 X97.526 Y141.887 E15.82231
G1 X97.877 Y141.203 E15.84788
G1 X98.253 Y140.621 E15.87093
G1 X99.216 Y139.272 E15.92606
G1 X99.695 Y138.67 E15.95164
G1 X100.006 Y138.338 E15.96677
G1 X101.236 Y137.108 E16.02463
G1 X101.808 Y136.594 E16.05021
G1 X102.188 Y136.305 E16.06608
G0 F6000 X102.42 Y136.631
G1 F1200 X103.778 Y135.668 E16.12146
G1 X104.41 Y135.268 E16.14633
G1 X104.937 Y135.003 E16.16595
G1 X105.804 Y134.611 E16.1976
G1 X107.169 Y134.022 E16.24705
G1 X107.87 Y133.763 E16.2719
G1 X108.331 Y133.637 E16.2878
G1 X109.35 Y133.39 E16.32267
G1 X110.082 Y133.236 E16.34755
G1 X110.564 Y133.177 E16.3637
G1 X112.306 Y133.028 E16.42185
G1 X113.054 Y133.005 E16.44674
G1 X113.509 Y133.029 E16.4619
G1 X115.224 Y133.178 E16.51915
G1 X115.965 Y133.283 E16.54404
G1 X116.412 Y133.386 E16.5593
G1 X118.068 Y133.825 E16.61628
G1 X118.78 Y134.055 E16.64117
G1 X119.308 Y134.282 E16.66028
G1 X119.961 Y134.596 E16.68438
G1 X121.542 Y135.399 E16.74336
G1 X122.189 Y135.773 E16.76822
G1 X122.589 Y136.054 E16.78448
G1 X123.314 Y136.598 E16.81462
G1 X123.904 Y137.058 E16.83951
G1 X124.192 Y137.324 E16.85255
G1 X125.297 Y138.399 E16.90382
G1 X125.805 Y138.948 E16.9287
G1 X126.198 Y139.47 E16.95043
G1 X127.541 Y141.438 E17.02968
G1 X127.929 Y142.078 E17.05457
G1 X128.178 Y142.591 E17.07353
G1 X128.698 Y143.786 E17.11688
G1 X128.9 Y144.343 E17.13659
G1 X128.9 Y134.675 E17.45815
G1 X128.94 Y133.928 E17.48303
G1 X129.059 Y133.19 E17.50789
G1 X129.257 Y132.468 E17.53279
G1 X129.53 Y131.772 E17.55766
G1 X129.877 Y131.109 E17.58255
G1 X130.292 Y130.486 E17.60744
G1 X130.771 Y129.912 E17.63231
G1 X131.308 Y129.391 E17.65719
G1 X131.898 Y128.932 E17.68206
G1 X132.534 Y128.537 E17.70696
G1 X133.208 Y128.213 E17.73183
G1 X133.913 Y127.963 E17.75671
G1 X134.641 Y127.789 E17.7816
G1 X135.383 Y127.694 E17.80649
G1 X135.9 Y127.675 E17.82369
G1 X164.1 Y127.675 E18.76163
G1 X164.847 Y127.715 E18.78651
G1 X165.585 Y127.834 E18.81137
G1 X166.307 Y128.032 E18.83627
G1 X167.003 Y128.305 E18.86114
G1 X167.666 Y128.652 E18.88603
G1 X168.289 Y129.067 E18.91093
G1 X168.863 Y129.546 E18.93579
G1 X169.384 Y130.083 E18.96068
G1 X169.843 Y130.673 E18.98554
G1 X170.238 Y131.309 E19.01044
G1 X170.562 Y131.983 E19.03531
G1 X170.812 Y132.688 E19.06019
G1 X170.986 Y133.416 E19.08509
G1 X171.081 Y134.158 E19.10997
G1 X171.1 Y134.675 E19.12717
G1 X171.1 Y165.325 E20.1466
G1 X171.06 Y166.072 E20.17148
G1 X170.941 Y166.81 E20.19634
G1 X170.743 Y167.532 E20.22124
G1 X170.47 Y168.228 E20.24611
G1 X170.123 Y168.891 E20.271
G1 X169.708 Y169.514 E20.2959
G1 X169.229 Y170.088 E20.32076
G1 X168.692 Y170.609 E20.34565
G1 X168.102 Y171.068 E20.37051
G1 X167.466 Y171.463 E20.39541
G1 X166.792 Y171.787 E20.42028
G1 X166.087 Y172.037 E20.44516
G1 X165.359 Y172.211 E20.47006
G1 X164.617 Y172.306 E20.49494
G1 X164.1 Y172.325 E20.51214
G1 X135.9 Y172.325 E21.45008
G1 X135.153 Y172.285 E21.47496
G1 X134.415 Y172.166 E21.49982
G1 X133.693 Y171.968 E21.52472
G1 X132.997 Y171.695 E21.54959
G1 X132.334 Y171.348 E21.57448
G1 X131.711 Y170.933 E21.59938
G1 X131.137 Y170.454 E21.62424
G1 X130.616 Y169.917 E21.64913
G1 X130.157 Y169.327 E21.67399
G1 X129.762 Y168.691 E21.69889
G1 X129.438 Y168.017 E21.72377
G1 X129.188 Y167.312 E21.74864
G1 X129.014 Y166.584 E21.77354
G1 X128.919 Y165.842 E21.79842
G1 X128.9 Y165.325 E21.81563
G1 X128.9 Y155.633 E22.13798
G1 X128.169 Y157.328 E22.19938
G1 X127.89 Y157.949 E22.22202
G1 X127.548 Y158.614 E22.24689
G1 X127.2 Y159.15 E22.26815
G1 X126.236 Y160.499 E22.3233
G1 X125.769 Y161.083 E22.34817
G1 X125.491 Y161.379 E22.36167
G1 X124.261 Y162.609 E22.41953
G1 X123.704 Y163.109 E22.44442
G1 X123.361 Y163.368 E22.45872
G1 X122.005 Y164.33 E22.51402
G1 X121.373 Y164.73 E22.53889
G1 X120.849 Y164.995 E22.55842
G1 X120.098 Y165.336 E22.58586
G1 X118.612 Y165.978 E22.6397
G1 X117.911 Y166.237 E22.66455
G1 X117.448 Y166.364 E22.68052
G1 X116.43 Y166.61 E22.71535
G1 X115.698 Y166.764 E22.74023
G1 X115.216 Y166.823 E22.75638
G1 X113.474 Y166.972 E22.81454
G1 X112.726 Y166.995 E22.83943
G1 X112.271 Y166.971 E22.85458
G1 X110.556 Y166.822 E22.91184
G1 X109.815 Y166.717 E22.93673
G1 X109.443 Y166.634 E22.9494
G1 X107.998 Y166.268 E22.99898
G1 X107.284 Y166.046 E23.02385
G1 X106.734 Y165.815 E23.04369
G1 X104.626 Y164.822 E23.1212
G1 X103.967 Y164.467 E23.14609
G1 X103.489 Y164.148 E23.16521
G1 X102.349 Y163.318 E23.21211
G1 X101.646 Y162.732 E23.24255
G1 X100.713 Y161.845 E23.28536
G1 X100.199 Y161.302 E23.31023
G1 X99.863 Y160.873 E23.32836
G1 X98.47 Y158.946 E23.40744
G1 X98.065 Y158.317 E23.43232
G1 X97.762 Y157.722 E23.45453
G1 X97.119 Y156.296 E23.50656
G1 X96.808 Y155.471 E23.53588
G1 X96.483 Y154.411 E23.57276
G1 X96.302 Y153.685 E23.59765
G1 X96.229 Y153.23 E23.61297
G1 X96.011 Y151.491 E23.67126
G1 X95.93 Y150.667 E23.6988
G1 X95.898 Y149.92 E23.72367
G1 X95.925 Y149.392 E23.74126
G1 X96.077 Y147.653 E23.79932
G1 X96.235 Y146.663 E23.83266
G1 X96.508 Y145.5 E23.87239
G1 X96.718 Y144.782 E23.89727
G1 X96.898 Y144.322 E23.9137
G1 X97.612 Y142.672 E23.9735
G1 X97.891 Y142.051 E23.99614
G1 X98.233 Y141.386 E24.02102
G1 X98.579 Y140.853 E24.04215
G1 X99.542 Y139.504 E24.09728
G1 X100.008 Y138.919 E24.12215
G1 X100.289 Y138.621 E24.13578
G1 X101.519 Y137.391 E24.19363
G1 X102.076 Y136.891 E24.21853
G1 X102.42 Y136.631 E24.23287
G0 F6000 X102.651 Y136.957
G1 F1200 X104.009 Y135.994 E24.28824
G1 X104.624 Y135.607 E24.31241
G1 X105.102 Y135.367 E24.3302
G1 X105.962 Y134.978 E24.36159
G1 X107.327 Y134.389 E24.41104
G1 X108.009 Y134.138 E24.43521
G1 X108.423 Y134.026 E24.44947
G1 X109.453 Y133.777 E24.48472
G1 X110.164 Y133.628 E24.50888
G1 X110.599 Y133.576 E24.52345
G1 X112.341 Y133.427 E24.5816
G1 X113.067 Y133.405 E24.60576
G1 X113.474 Y133.428 E24.61932
G1 X115.189 Y133.577 E24.67657
G1 X115.908 Y133.679 E24.70073
G1 X116.309 Y133.772 E24.71442
