;FLAVOR:Marlin
;TIME:427
;Filament used: 0.194791m
;Layer height: 0.15
;MINX:109.7
;MINY:83.434
;MINZ:0.2
;MAXX:153.394
;MAXY:115.3
;MAXZ:15.05
;Generated with Cura_SteamEngine 5.2.1
M82 ;absolute extrusion mode
G21 ; set units to millimeters
G90 ; use absolute positioning
M82 ; absolute extrusion mode
M104 S200 ; set extruder temp
M140 S60 ; set bed temp
M190 S60 ; wait for bed temp
M109 S200 ; wait for extruder temp
G28 W ; home all without mesh bed level
G80 ; mesh bed leveling
G92 E0.0 ; reset extruder distance position
G1 Y-3.0 F1000.0 ; go outside print area
G1 X60.0 E9.0 F1000.0 ; intro line
G1 X100.0 E21.5 F1000.0 ; intro line
G92 E0.0 ; reset extruder distance position
G92 E0
G92 E0
G1 F2100 E-0.8
;LAYER_COUNT:100
;LAYER:0
M107
G0 F3600 X111.553 Y86.481 Z0.2
;TYPE:SKIRT
G1 F2100 E0
G1 F1800 X112.078 Y85.891 E0.02627
G1 X112.66 Y85.358 E0.05252
G1 X113.294 Y84.886 E0.0788
G1 X114.187 Y84.359 E0.11329
G1 X115.049 Y83.971 E0.14473
G1 X115.798 Y83.72 E0.17101
G1 X116.568 Y83.547 E0.19726
G1 X117.352 Y83.453 E0.22352
G1 X117.892 Y83.434 E0.24149
G1 X132.108 Y83.434 E0.71432
G1 X132.897 Y83.474 E0.74059
G1 X133.677 Y83.593 E0.76684
G1 X134.442 Y83.791 E0.79312
G1 X135.182 Y84.065 E0.81936
G1 X135.828 Y84.369 E0.84311
G1 X136.613 Y84.824 E0.87329
G1 X137.253 Y85.287 E0.89956
G1 X137.843 Y85.812 E0.92583
G1 X138.376 Y86.394 E0.95208
G1 X138.848 Y87.028 E0.97836
G1 X139.375 Y87.921 E1.01285
G1 X139.763 Y88.783 E1.04429
G1 X140.014 Y89.532 E1.07057
G1 X140.187 Y90.302 E1.09682
G1 X140.281 Y91.086 E1.12308
G1 X140.3 Y91.626 E1.14105
G1 X140.3 Y93.086 E1.18961
G1 X140.826 Y92.8 E1.20952
G1 X141.547 Y92.478 E1.23579
G1 X142.297 Y92.232 E1.26204
G1 X143.241 Y92.026 E1.29418
G1 X144.178 Y91.921 E1.32554
G1 X144.968 Y91.913 E1.35181
G1 X146.047 Y92.024 E1.38789
G1 X146.976 Y92.225 E1.4195
G1 X147.727 Y92.469 E1.44577
G1 X148.607 Y92.859 E1.47778
G1 X149.424 Y93.327 E1.5091
G1 X150.066 Y93.787 E1.53537
G1 X150.828 Y94.468 E1.56936
G1 X151.462 Y95.169 E1.60079
G1 X151.929 Y95.805 E1.62704
G1 X152.442 Y96.689 E1.66103
G1 X152.829 Y97.555 E1.69258
G1 X153.075 Y98.305 E1.71883
G1 X153.28 Y99.246 E1.75086
G1 X153.385 Y100.181 E1.78216
G1 X153.394 Y100.97 E1.8084
G1 X153.284 Y102.048 E1.84444
G1 X153.084 Y102.98 E1.87615
G1 X152.84 Y103.731 E1.90241
G1 X152.447 Y104.615 E1.93459
G1 X151.98 Y105.432 E1.96589
G1 X151.52 Y106.074 E1.99215
G1 X150.839 Y106.836 E2.02614
G1 X150.138 Y107.47 E2.05758
G1 X149.502 Y107.937 E2.08383
G1 X148.618 Y108.45 E2.11782
G1 X147.752 Y108.837 E2.14937
G1 X147.002 Y109.083 E2.17562
G1 X146.038 Y109.292 E2.20843
G1 X145.1 Y109.394 E2.23981
G1 X144.311 Y109.4 E2.26605
G1 X143.279 Y109.295 E2.30055
G1 X142.352 Y109.098 E2.33208
G1 X141.6 Y108.857 E2.35834
G1 X140.826 Y108.516 E2.38647
G1 X140.216 Y108.184 E2.40957
G1 X140.141 Y108.677 E2.42616
G1 X139.943 Y109.442 E2.45244
G1 X139.669 Y110.182 E2.47868
G1 X139.365 Y110.828 E2.50243
G1 X138.91 Y111.613 E2.53261
G1 X138.447 Y112.253 E2.55888
G1 X137.922 Y112.843 E2.58515
G1 X137.34 Y113.376 E2.6114
G1 X136.706 Y113.848 E2.63769
G1 X135.813 Y114.375 E2.67217
G1 X134.951 Y114.763 E2.70361
G1 X134.202 Y115.014 E2.72989
G1 X133.432 Y115.187 E2.75614
G1 X132.648 Y115.281 E2.7824
G1 X132.108 Y115.3 E2.80037
G1 X117.892 Y115.3 E3.2732
G1 X117.103 Y115.26 E3.29947
G1 X116.323 Y115.141 E3.32572
G1 X115.558 Y114.943 E3.352
G1 X114.818 Y114.669 E3.37824
G1 X114.172 Y114.365 E3.40199
G1 X113.387 Y113.91 E3.43217
G1 X112.747 Y113.447 E3.45844
G1 X112.157 Y112.922 E3.48471
G1 X111.624 Y112.34 E3.51096
G1 X111.152 Y111.706 E3.53725
G1 X110.625 Y110.813 E3.57173
G1 X110.237 Y109.951 E3.60317
G1 X109.986 Y109.202 E3.62945
G1 X109.813 Y108.432 E3.6557
G1 X109.719 Y107.648 E3.68196
G1 X109.7 Y107.108 E3.69993
G1 X109.7 Y102.892 E3.84016
G1 X109.74 Y102.103 E3.86643
G1 X109.859 Y101.323 E3.89267
G1 X110.057 Y100.558 E3.91896
G1 X110.331 Y99.818 E3.9452
G1 X110.544 Y99.365 E3.96185
G1 X110.239 Y98.69 E3.98649
G1 X109.988 Y97.941 E4.01276
G1 X109.814 Y97.171 E4.03902
G1 X109.719 Y96.387 E4.06528
G1 X109.7 Y95.841 E4.08346
G1 X109.7 Y91.626 E4.22365
G1 X109.74 Y90.837 E4.24992
G1 X109.859 Y90.057 E4.27617
G1 X110.057 Y89.292 E4.30245
G1 X110.331 Y88.552 E4.32869
G1 X110.635 Y87.906 E4.35244
G1 X111.09 Y87.121 E4.38262
G1 X111.553 Y86.481 E4.40889
G0 F3600 X111.89 Y86.7
G1 F1800 X112.405 Y86.129 E4.43447
G1 X112.977 Y85.615 E4.46004
G1 X113.6 Y85.163 E4.48564
G1 X114.38 Y84.71 E4.51564
G1 X115.213 Y84.336 E4.54601
G1 X115.944 Y84.095 E4.57161
G1 X116.695 Y83.931 E4.59718
G1 X117.578 Y83.834 E4.62673
G1 X132.108 Y83.834 E5.11
G1 X132.876 Y83.874 E5.13557
G1 X133.636 Y83.993 E5.16116
G1 X134.379 Y84.191 E5.18674
G1 X135.098 Y84.465 E5.21233
G1 X135.747 Y84.784 E5.23638
G1 X136.412 Y85.171 E5.26197
G1 X137.034 Y85.624 E5.28756
G1 X137.605 Y86.139 E5.31314
G1 X138.119 Y86.711 E5.33872
G1 X138.571 Y87.334 E5.36432
G1 X139.024 Y88.114 E5.39432
G1 X139.398 Y88.947 E5.42469
G1 X139.639 Y89.678 E5.45029
G1 X139.803 Y90.429 E5.47585
G1 X139.9 Y91.312 E5.5054
G1 X139.9 Y93.777 E5.58739
G1 X140.867 Y93.218 E5.62454
G1 X141.71 Y92.844 E5.65521
G1 X142.442 Y92.607 E5.6808
G1 X143.312 Y92.42 E5.7104
G1 X144.222 Y92.319 E5.74085
G1 X144.991 Y92.315 E5.76643
G1 X145.985 Y92.419 E5.79967
G1 X146.891 Y92.616 E5.83051
G1 X147.621 Y92.857 E5.85607
G1 X148.43 Y93.217 E5.88553
G1 X149.225 Y93.674 E5.91603
G1 X149.848 Y94.125 E5.94161
G1 X150.55 Y94.754 E5.97296
G1 X151.164 Y95.437 E6.0035
G1 X151.617 Y96.059 E6.0291
G1 X152.089 Y96.875 E6.06045
G1 X152.463 Y97.718 E6.09112
G1 X152.7 Y98.45 E6.11671
G1 X152.887 Y99.317 E6.14621
G1 X152.987 Y100.225 E6.1766
G1 X152.992 Y100.994 E6.20217
G1 X152.888 Y101.989 E6.23545
G1 X152.692 Y102.895 E6.26628
G1 X152.452 Y103.626 E6.29187
G1 X152.089 Y104.439 E6.32148
G1 X151.633 Y105.233 E6.35194
G1 X151.182 Y105.856 E6.37752
G1 X150.553 Y106.558 E6.40887
G1 X149.87 Y107.172 E6.43941
G1 X149.248 Y107.625 E6.46501
G1 X148.432 Y108.097 E6.49636
G1 X147.589 Y108.471 E6.52703
G1 X146.857 Y108.708 E6.55262
G1 X145.969 Y108.898 E6.58283
G1 X145.057 Y108.996 E6.61334
G1 X144.288 Y108.998 E6.63891
G1 X143.337 Y108.899 E6.67071
G1 X142.436 Y108.706 E6.70136
G1 X141.704 Y108.469 E6.72695
G1 X140.869 Y108.098 E6.75734
G1 X139.879 Y107.529 E6.79532
G1 X139.86 Y107.876 E6.80688
G1 X139.741 Y108.636 E6.83246
G1 X139.543 Y109.379 E6.85804
G1 X139.269 Y110.098 E6.88363
G1 X138.95 Y110.747 E6.90768
G1 X138.563 Y111.412 E6.93327
G1 X138.11 Y112.034 E6.95887
G1 X137.595 Y112.605 E6.98444
G1 X137.023 Y113.119 E7.01002
G1 X136.4 Y113.571 E7.03562
G1 X135.62 Y114.024 E7.06562
G1 X134.787 Y114.398 E7.09599
G1 X134.056 Y114.639 E7.12159
G1 X133.305 Y114.803 E7.14716
G1 X132.422 Y114.9 E7.1767
G1 X117.892 Y114.9 E7.65997
G1 X117.124 Y114.86 E7.68555
G1 X116.364 Y114.741 E7.71114
G1 X115.621 Y114.543 E7.73671
G1 X114.902 Y114.269 E7.7623
G1 X114.253 Y113.95 E7.78636
G1 X113.588 Y113.563 E7.81195
G1 X112.966 Y113.11 E7.83754
G1 X112.395 Y112.595 E7.86311
G1 X111.881 Y112.023 E7.88869
G1 X111.429 Y111.4 E7.91429
G1 X110.976 Y110.62 E7.94429
G1 X110.602 Y109.787 E7.97466
G1 X110.361 Y109.056 E8.00026
G1 X110.197 Y108.305 E8.02583
G1 X110.1 Y107.422 E8.05538
G1 X110.1 Y102.892 E8.20604
G1 X110.14 Y102.124 E8.23162
G1 X110.259 Y101.364 E8.25721
G1 X110.457 Y100.621 E8.28278
G1 X110.731 Y99.902 E8.30837
G1 X110.987 Y99.375 E8.32786
G1 X110.604 Y98.525 E8.35887
G1 X110.363 Y97.795 E8.38444
G1 X110.198 Y97.043 E8.41005
G1 X110.1 Y96.162 E8.43953
G1 X110.1 Y91.626 E8.5904
G1 X110.14 Y90.858 E8.61597
G1 X110.259 Y90.098 E8.64156
G1 X110.457 Y89.355 E8.66714
G1 X110.731 Y88.636 E8.69273
G1 X111.05 Y87.987 E8.71678
G1 X111.437 Y87.322 E8.74237
G1 X111.89 Y86.7 E8.76796
G0 F3600 X112.226 Y86.921
G1 F1800 X112.732 Y86.369 E8.79287
G1 X113.293 Y85.875 E8.81773
G1 X113.904 Y85.443 E8.84262
G1 X114.573 Y85.061 E8.86824
G1 X115.377 Y84.701 E8.89754
G1 X116.089 Y84.47 E8.92244
G1 X116.821 Y84.316 E8.94732
G1 X117.892 Y84.234 E8.98304
G1 X132.108 Y84.234 E9.45587
G1 X132.855 Y84.274 E9.48075
G1 X133.593 Y84.393 E9.50561
G1 X134.315 Y84.591 E9.53051
G1 X135.417 Y85.054 E9.57027
G1 X136.211 Y85.517 E9.60084
G1 X136.813 Y85.96 E9.6257
G1 X137.365 Y86.466 E9.65061
G1 X137.859 Y87.027 E9.67547
G1 X138.291 Y87.638 E9.70036
G1 X138.673 Y88.307 E9.72598
G1 X139.033 Y89.111 E9.75528
G1 X139.264 Y89.823 E9.78018
G1 X139.418 Y90.555 E9.80505
G1 X139.5 Y91.626 E9.84078
G1 X139.5 Y94.617 E9.94026
G1 X139.697 Y94.44 E9.94907
G1 X140.303 Y94.003 E9.97392
G1 X141.054 Y93.573 E10.0027
G1 X141.872 Y93.21 E10.03247
G1 X142.585 Y92.983 E10.05736
G1 X143.383 Y92.813 E10.08449
G1 X144.266 Y92.718 E10.11403
G1 X145.014 Y92.716 E10.13891
G1 X145.928 Y92.815 E10.16949
G1 X146.805 Y93.007 E10.19935
G1 X147.515 Y93.245 E10.22425
G1 X148.256 Y93.578 E10.25127
G1 X149.025 Y94.022 E10.28081
G1 X149.629 Y94.462 E10.30566
G1 X150.271 Y95.041 E10.33442
G1 X150.867 Y95.705 E10.36409
G1 X151.304 Y96.311 E10.38894
G1 X151.734 Y97.062 E10.41773
G1 X152.097 Y97.88 E10.44749
G1 X152.324 Y98.593 E10.47238
G1 X152.493 Y99.387 E10.49938
G1 X152.589 Y100.269 E10.52889
G1 X152.591 Y101.017 E10.55377
G1 X152.493 Y101.931 E10.58434
G1 X152.301 Y102.81 E10.61426
G1 X152.064 Y103.519 E10.63913
G1 X151.728 Y104.265 E10.66634
G1 X151.285 Y105.033 E10.69583
G1 X150.845 Y105.637 E10.72068
G1 X150.266 Y106.279 E10.74944
G1 X149.602 Y106.875 E10.77911
G1 X148.996 Y107.312 E10.80396
G1 X148.245 Y107.742 E10.83275
G1 X147.427 Y108.105 E10.86251
G1 X146.714 Y108.332 E10.8874
G1 X145.899 Y108.504 E10.9151
G1 X145.015 Y108.597 E10.94467
G1 X144.267 Y108.596 E10.96955
G1 X143.396 Y108.503 E10.99868
G1 X142.52 Y108.315 E11.02848
G1 X141.809 Y108.08 E11.05339
G1 X141.045 Y107.738 E11.08123
G1 X140.272 Y107.293 E11.11089
G1 X139.52 Y106.744 E11.14186
G1 X139.46 Y107.855 E11.17887
G1 X139.341 Y108.593 E11.20373
G1 X139.143 Y109.315 E11.22863
G1 X138.68 Y110.417 E11.26839
G1 X138.217 Y111.211 E11.29896
G1 X137.774 Y111.813 E11.32382
G1 X137.268 Y112.365 E11.34872
G1 X136.707 Y112.859 E11.37358
G1 X136.096 Y113.291 E11.39847
G1 X135.427 Y113.673 E11.4241
G1 X134.623 Y114.033 E11.4534
G1 X133.911 Y114.264 E11.47829
G1 X133.179 Y114.418 E11.50317
G1 X132.108 Y114.5 E11.5389
G1 X117.892 Y114.5 E12.01172
G1 X117.145 Y114.46 E12.0366
G1 X116.407 Y114.341 E12.06147
G1 X115.685 Y114.143 E12.08637
G1 X114.583 Y113.68 E12.12612
G1 X113.789 Y113.217 E12.15669
G1 X113.187 Y112.774 E12.18155
G1 X112.635 Y112.268 E12.20646
G1 X112.141 Y111.707 E12.23132
G1 X111.709 Y111.096 E12.25621
G1 X111.327 Y110.427 E12.28183
G1 X110.967 Y109.623 E12.31113
G1 X110.736 Y108.911 E12.33603
G1 X110.582 Y108.179 E12.36091
G1 X110.5 Y107.108 E12.39663
G1 X110.5 Y102.892 E12.53686
G1 X110.54 Y102.145 E12.56174
G1 X110.659 Y101.407 E12.5866
G1 X110.857 Y100.685 E12.6115
G1 X111.273 Y99.694 E12.64725
G1 X111.446 Y99.366 E12.65958
G1 X111.276 Y99.043 E12.67172
G1 X110.969 Y98.361 E12.6966
G1 X110.738 Y97.65 E12.72147
G1 X110.583 Y96.918 E12.74635
G1 X110.5 Y95.841 E12.78228
G1 X110.5 Y91.626 E12.92247
G1 X110.54 Y90.879 E12.94735
G1 X110.659 Y90.141 E12.97221
G1 X110.857 Y89.419 E12.99711
G1 X111.32 Y88.317 E13.03687
G1 X111.783 Y87.523 E13.06744
G1 X112.226 Y86.921 E13.0923
G0 F3600 X112.562 Y87.142
G1 F1800 X113.057 Y86.611 E13.11645
G1 X113.608 Y86.137 E13.14062
G1 X114.207 Y85.726 E13.16478
G1 X114.877 Y85.363 E13.19013
G1 X115.541 Y85.067 E13.21431
G1 X116.232 Y84.846 E13.23844
G1 X116.944 Y84.702 E13.2626
G1 X117.892 Y84.634 E13.29421
G1 X132.108 Y84.634 E13.76703
G1 X132.833 Y84.674 E13.79118
G1 X133.55 Y84.793 E13.81536
G1 X134.249 Y84.991 E13.83952
G1 X135.239 Y85.413 E13.87532
G1 X136.009 Y85.863 E13.90498
G1 X136.592 Y86.296 E13.92913
G1 X137.123 Y86.791 E13.95328
G1 X137.597 Y87.342 E13.97745
G1 X138.008 Y87.941 E14.00161
G1 X138.371 Y88.611 E14.02696
G1 X138.667 Y89.275 E14.05114
G1 X138.888 Y89.966 E14.07527
G1 X139.032 Y90.678 E14.09943
G1 X139.1 Y91.626 E14.13104
G1 X139.1 Y95.557 E14.26179
G1 X139.423 Y95.223 E14.27724
G1 X139.964 Y94.739 E14.30138
G1 X140.555 Y94.316 E14.32556
G1 X141.243 Y93.925 E14.35188
G1 X142.034 Y93.577 E14.38062
G1 X142.727 Y93.359 E14.40478
G1 X143.456 Y93.207 E14.42955
G1 X144.309 Y93.116 E14.45808
G1 X145.035 Y93.118 E14.48223
G1 X145.87 Y93.211 E14.51017
G1 X146.719 Y93.399 E14.53909
G1 X147.407 Y93.632 E14.56325
G1 X148.082 Y93.939 E14.58792
G1 X148.825 Y94.368 E14.61645
G1 X149.409 Y94.799 E14.64059
G1 X149.993 Y95.329 E14.66682
G1 X150.568 Y95.972 E14.69551
G1 X150.991 Y96.563 E14.71969
G1 X151.382 Y97.251 E14.74601
G1 X151.73 Y98.042 E14.77475
G1 X151.948 Y98.735 E14.79891
G1 X152.099 Y99.46 E14.82354
G1 X152.191 Y100.312 E14.85205
G1 X152.189 Y101.039 E14.87623
G1 X152.097 Y101.873 E14.90413
G1 X151.909 Y102.724 E14.93312
G1 X151.676 Y103.412 E14.95728
G1 X151.368 Y104.089 E14.98202
G1 X150.939 Y104.833 E15.01058
G1 X150.508 Y105.417 E15.03472
G1 X149.978 Y106.001 E15.06095
G1 X149.335 Y106.576 E15.08964
G1 X148.744 Y106.999 E15.11382
G1 X148.056 Y107.39 E15.14014
G1 X147.265 Y107.738 E15.16888
G1 X146.572 Y107.956 E15.19304
G1 X145.828 Y108.11 E15.21831
G1 X144.973 Y108.199 E15.2469
G1 X144.247 Y108.195 E15.27105
G1 X143.449 Y108.106 E15.29776
G1 X142.604 Y107.923 E15.32651
G1 X141.916 Y107.692 E15.35065
G1 X141.22 Y107.379 E15.37603
G1 X140.473 Y106.946 E15.40475
G1 X139.888 Y106.515 E15.42892
G1 X139.41 Y106.08 E15.45041
G1 X139.1 Y105.756 E15.46533
G1 X139.1 Y107.108 E15.5103
G1 X139.06 Y107.833 E15.53445
G1 X138.941 Y108.55 E15.55862
G1 X138.743 Y109.249 E15.58278
G1 X138.321 Y110.239 E15.61858
G1 X137.871 Y111.009 E15.64824
G1 X137.438 Y111.592 E15.6724
G1 X136.943 Y112.123 E15.69654
G1 X136.392 Y112.597 E15.72071
G1 X135.793 Y113.008 E15.74488
G1 X135.123 Y113.371 E15.77022
G1 X134.459 Y113.667 E15.7944
G1 X133.768 Y113.888 E15.81853
G1 X133.056 Y114.032 E15.84269
G1 X132.108 Y114.1 E15.8743
G1 X117.892 Y114.1 E16.34713
G1 X117.167 Y114.06 E16.37128
G1 X116.45 Y113.941 E16.39545
G1 X115.751 Y113.743 E16.41962
G1 X114.761 Y113.321 E16.45541
G1 X113.991 Y112.871 E16.48507
G1 X113.408 Y112.438 E16.50923
G1 X112.877 Y111.943 E16.53337
G1 X112.403 Y111.392 E16.55755
G1 X111.992 Y110.793 E16.58171
G1 X111.629 Y110.123 E16.60705
G1 X111.333 Y109.459 E16.63123
G1 X111.112 Y108.768 E16.65536
G1 X110.968 Y108.056 E16.67952
G1 X110.9 Y107.108 E16.71113
G1 X110.9 Y102.892 E16.85136
G1 X110.94 Y102.167 E16.87551
G1 X111.059 Y101.45 E16.89968
G1 X111.257 Y100.751 E16.92385
G1 X111.629 Y99.877 E16.95544
G1 X111.909 Y99.366 E16.97482
G1 X111.631 Y98.86 E16.99402
G1 X111.335 Y98.197 E17.01817
G1 X111.113 Y97.506 E17.04231
G1 X110.969 Y96.794 E17.06647
G1 X110.9 Y95.841 E17.09825
G1 X110.9 Y91.626 E17.23844
G1 X110.94 Y90.901 E17.26259
G1 X111.059 Y90.184 E17.28677
G1 X111.257 Y89.485 E17.31093
G1 X111.679 Y88.495 E17.34673
G1 X112.129 Y87.725 E17.37639
G1 X112.562 Y87.142 E17.40054
G0 F3600 X112.897 Y87.365
G1 F1800 X113.382 Y86.854 E17.42397
G1 X113.921 Y86.401 E17.44739
G1 X114.9 Y85.79 E17.48578
G1 X115.703 Y85.433 E17.515
G1 X116.375 Y85.222 E17.53843
G1 X117.066 Y85.089 E17.56183
G1 X117.892 Y85.034 E17.58937
G1 X132.108 Y85.034 E18.06219
G1 X132.811 Y85.074 E18.08561
G1 X133.505 Y85.193 E18.10903
G1 X134.18 Y85.391 E18.13243
G1 X135.062 Y85.772 E18.16439
G1 X135.806 Y86.208 E18.19307
G1 X136.369 Y86.631 E18.21649
G1 X136.88 Y87.116 E18.23992
G1 X137.333 Y87.655 E18.26334
G1 X137.944 Y88.634 E18.30172
G1 X138.301 Y89.437 E18.33095
G1 X138.512 Y90.109 E18.35438
G1 X138.645 Y90.8 E18.37778
G1 X138.7 Y91.626 E18.40532
G1 X138.7 Y95.841 E18.54551
G1 X138.648 Y96.762 E18.57619
G1 X139.134 Y96.111 E18.60321
G1 X139.611 Y95.591 E18.62668
G1 X140.231 Y95.037 E18.65433
G1 X140.806 Y94.631 E18.67774
G1 X141.431 Y94.278 E18.70162
G1 X142.195 Y93.944 E18.72935
G1 X142.868 Y93.736 E18.75278
G1 X143.651 Y93.588 E18.77928
G1 X144.351 Y93.514 E18.8027
G1 X145.055 Y93.52 E18.82611
G1 X145.813 Y93.608 E18.85149
G1 X146.632 Y93.79 E18.8794
G1 X147.298 Y94.02 E18.90283
G1 X148.015 Y94.361 E18.92924
G1 X148.624 Y94.715 E18.95267
G1 X149.188 Y95.135 E18.97606
G1 X149.715 Y95.618 E18.99983
G1 X150.27 Y96.239 E19.02753
G1 X150.676 Y96.814 E19.05095
